dist/img/icon/linkden.svg

<svg width="20" height="20" viewBox="0 0 20 20" fill="none" xmlns="http://www.w3.org/2000/svg">
<path opacity="0.5" fill-rule="evenodd" clip-rule="evenodd" d="M10 20C15.5228 20 20 15.5228 20 10C20 4.47715 15.5228 0 10 0C4.47715 0 0 4.47715 0 10C0 15.5228 4.47715 20 10 20ZM5.80686 8.13929H7.71521V14.3636H5.80686V8.13929ZM6.77129 5.06815C6.99459 5.06546 7.2136 5.12948 7.40029 5.25201C7.58698 5.37454 7.73285 5.55 7.81922 5.75592C7.9056 5.96185 7.92855 6.18886 7.88514 6.40791C7.84172 6.62695 7.73392 6.82805 7.57553 6.98547C7.41714 7.14288 7.21537 7.24944 6.99606 7.2915C6.77675 7.33356 6.54988 7.3092 6.34449 7.22155C6.13911 7.1339 5.96455 6.98695 5.84319 6.7995C5.72182 6.61206 5.65916 6.39265 5.66322 6.16938C5.6668 5.87725 5.78491 5.59818 5.99214 5.39224C6.19936 5.18629 6.47914 5.06992 6.77129 5.06815ZM10.8136 8.13925H8.95314V14.3704H10.8888V11.2925C10.8888 10.4785 11.0462 9.69191 12.0516 9.69191C13.0571 9.69191 13.0571 10.6563 13.0571 11.3403V14.3704H14.9654V10.9505C14.9654 9.27468 14.6029 7.98877 12.6467 7.98877C12.2798 7.976 11.9161 8.06191 11.5937 8.23756C11.2713 8.41321 11.0019 8.67216 10.8136 8.98739V8.13925Z" fill="white"/>
</svg>

<svg width="20" height="20" viewBox="0 0 20 20" fill="none" xmlns="http://www.w3.org/2000/svg"><path opacity=".5" fill-rule="evenodd" clip-rule="evenodd" d="M10 20c5.523 0 10-4.477 10-10S15.523 0 10 0 0 4.477 0 10s4.477 10 10 10zM5.807 8.14h1.908v6.224H5.807V8.139zm.964-3.072A1.122 1.122 0 115.663 6.17a1.115 1.115 0 011.108-1.1zm4.043 3.071h-1.86v6.231h1.935v-3.077c0-.814.157-1.601 1.163-1.601 1.005 0 1.005.964 1.005 1.648v3.03h1.908v-3.42c0-1.675-.362-2.961-2.318-2.961a2.052 2.052 0 00-1.833.998V8.14z" fill="#fff"/></svg>
